SF_Symbols/app.badge.fill.svg

<?xml version="1.0" encoding="UTF-8"?>
<svg xmlns="http://www.w3.org/2000/svg" xmlns:xlink="http://www.w3.org/1999/xlink" width="24" height="24" viewBox="0 0 24 24" version="1.1">
<g id="surface1">
<path style=" stroke:none;fill-rule:nonzero;fill:rgb(100%,100%,100%);fill-opacity:1;" d="M 7.136719 23.238281 L 15.441406 23.238281 C 16.382812 23.238281 17.242188 23.160156 18.023438 23.007812 C 18.800781 22.859375 19.472656 22.503906 20.039062 21.9375 C 20.597656 21.378906 20.953125 20.714844 21.097656 19.941406 C 21.253906 19.160156 21.332031 18.300781 21.332031 17.359375 L 21.332031 9.96875 C 20.765625 10.183594 20.164062 10.289062 19.53125 10.289062 C 18.804688 10.289062 18.117188 10.15625 17.46875 9.882812 C 16.832031 9.601562 16.265625 9.21875 15.773438 8.734375 C 15.28125 8.242188 14.894531 7.675781 14.613281 7.035156 C 14.34375 6.390625 14.207031 5.699219 14.207031 4.964844 C 14.207031 4.332031 14.3125 3.734375 14.527344 3.175781 L 7.113281 3.175781 C 6.1875 3.175781 5.335938 3.253906 4.554688 3.40625 C 3.78125 3.554688 3.113281 3.910156 2.546875 4.476562 C 1.988281 5.035156 1.632812 5.703125 1.476562 6.472656 C 1.332031 7.246094 1.257812 8.09375 1.257812 9.023438 L 1.257812 17.359375 C 1.257812 18.300781 1.332031 19.160156 1.476562 19.941406 C 1.625 20.714844 1.980469 21.378906 2.546875 21.9375 C 3.113281 22.503906 3.78125 22.859375 4.554688 23.007812 C 5.335938 23.160156 6.195312 23.238281 7.136719 23.238281 Z M 19.542969 8.789062 C 20.234375 8.789062 20.871094 8.617188 21.453125 8.273438 C 22.03125 7.925781 22.496094 7.464844 22.84375 6.882812 C 23.1875 6.300781 23.359375 5.660156 23.359375 4.964844 C 23.359375 4.265625 23.1875 3.625 22.84375 3.042969 C 22.496094 2.464844 22.03125 2 21.453125 1.65625 C 20.871094 1.308594 20.234375 1.136719 19.542969 1.136719 C 18.839844 1.136719 18.195312 1.308594 17.613281 1.65625 C 17.039062 2 16.582031 2.464844 16.234375 3.042969 C 15.890625 3.625 15.71875 4.265625 15.71875 4.964844 C 15.71875 5.660156 15.890625 6.300781 16.234375 6.882812 C 16.582031 7.464844 17.039062 7.925781 17.613281 8.273438 C 18.195312 8.617188 18.839844 8.789062 19.542969 8.789062 Z M 19.542969 8.789062 "/>
</g>
</svg>

<svg xmlns="http://www.w3.org/2000/svg" width="24" height="24"><path style="stroke:none;fill-rule:nonzero;fill:#fff;fill-opacity:1" d="M7.137 23.238h8.304c.942 0 1.801-.078 2.582-.23a3.795 3.795 0 0 0 2.016-1.07c.55-.54.922-1.239 1.059-1.997.156-.78.234-1.64.234-2.582V9.97a4.96 4.96 0 0 1-1.8.32 5.195 5.195 0 0 1-2.063-.406 5.56 5.56 0 0 1-1.696-1.149 5.52 5.52 0 0 1-1.16-1.699 5.302 5.302 0 0 1-.406-2.07c0-.633.105-1.23.32-1.79H7.113c-.926 0-1.777.079-2.558.231a3.8 3.8 0 0 0-2.008 1.07 3.862 3.862 0 0 0-1.07 1.997 13.636 13.636 0 0 0-.22 2.55v8.336c0 .942.075 1.801.22 2.582.14.762.515 1.461 1.07 1.997.543.554 1.246.93 2.008 1.07.78.152 1.64.23 2.582.23ZM19.543 8.79c.691 0 1.328-.172 1.91-.516.57-.34 1.05-.816 1.39-1.39.345-.578.52-1.242.516-1.918 0-.7-.172-1.34-.515-1.922a3.973 3.973 0 0 0-1.39-1.387 3.685 3.685 0 0 0-1.911-.52c-.703 0-1.348.173-1.93.52a3.972 3.972 0 0 0-1.379 1.387 3.696 3.696 0 0 0-.515 1.922c0 .695.172 1.336.515 1.918.336.57.813 1.05 1.38 1.39.585.344 1.25.524 1.929.516Zm0 0"/></svg>
